!!!COM: Corelli, Arcangelo
!!!OTL: Sonate a tre [in C]
!!!XEN: Trio Sonata Opus 1, No. 7
!!!OPS: Opus 1
!!!ONM: No. 7
!!!OMV: Movement 3.
!!!YEC: Copyright 1994, Center for Computer Assisted Research in the Humanities
!!!YEM: Rights to all derivative electronic formats reserved.
!!!YEM: Refer to licensing agreement for further details.
!! For the following instrumentation: Violino I & II, Violone/Archlute,
!!    and Organo.
!! Allegro.
**kern	**kern	**kern	**kern
*ICklav	*ICstr	*ICstr	*ICstr
*Iorgan	*Icello	*Ivioln	*Ivioln
*	*Iarchl	*	*
!Organo	!Violone	!Violin 2	!Violin 1
!	! or	!	!
!	!Archlute	!	!
*clefF4	*clefF4	*clefG2	*clefG2
*k[]	*k[]	*k[]	*k[]
*?:	*?:	*?:	*?:
*M6/8	*M6/8	*M6/8	*M6/8
*MM66	*MM66	*MM66	*MM66
=1-	=1-	=1-	=1-
4c\	2.r	2.r	4cc\
8B\	.	.	8g/
4.A\	.	.	8cc\L
.	.	.	(16ee\L
.	.	.	16dd\J)
.	.	.	8cc\J
=2	=2	=2	=2
4.G\	2.r	2.r	8gg\L
.	.	.	(16aa\L
.	.	.	16gg\J)
.	.	.	8ff\J
4.C/	.	.	4ee\
.	.	.	8cc\
=3	=3	=3	=3
8BB\L	2.r	4g/	4gg\
8G\	.	.	.
8F#\J	.	8d/	8aa\
4.E\	.	8g/L	8bb\L
.	.	(16b/L	8g\
.	.	16a/J)	.
.	.	8g/J	8gg\J
=4	=4	=4	=4
4.D\	2.r	8dd\L	4gg\
.	.	(16ee\L	.
.	.	16dd\J)	.
.	.	8cc\J	8ff#\
4.GG/	.	4b\	4gg\
.	.	8g/	8b\
=5	=5	=5	=5
4C/	4C/	4ee\	4cc\
8GG/	8GG/	8dd\	8dd\
4C/	8C\L	4cc\	8ee\L
.	(16E\L	.	(16gg\L
.	16D\J)	.	16ff\J)
8C/	8C\J	8cc\	8ee\J
=6	=6	=6	=6
4.GG/	8G\L	4cc\	4dd\
.	(16A\L	.	.
.	16G\J)	.	.
.	8F\J	8b\	8dd\
4.C/	4E\	4.cc\	4.cc\
.	8C/	.	.
=7	=7	=7	=7
4c\	4c\	4ee\	4gg\
8c\	8c\	8ee\	8gg\
4c\	4c\	4ee\	4gg\
8B\	8B\	8dd\	8gg#\
=8	=8	=8	=8
4B\	4B\	4dd\	4gg#\
8A\	8A\	8cc\	8aa\
8G#\	4G#\	4b\	4bb\
4E\	.	.	.
.	8E\	8b\	8ee\
=9	=9	=9	=9
8C\L	8C\L	4ee\	8aa\L
8c\	8c\	.	(16bb\L
.	.	.	16aa\J)
8B\J	8B\J	8dd\	8gg\J
4A\	4A\	4cc\	4ff\
8G\	8G\	8b\	8ee\
=10	=10	=10	=10
4F\	4F\	4a/	8ee\L
.	.	.	(16ff\L
.	.	.	16ee\J)
8F\	8F\	8a/	8dd\J
4.E\	4.E\	4g#/	4ee\
.	.	8g#/	8ee\
=11	=11	=11	=11
4A\	4A\	4cc\	8ff\L
.	.	.	(16gg\L
.	.	.	16ff\J)
8G\	8G\	8b\	8ee\J
4F\	4F\	4a/	4dd\
8E\	8E\	8g/	8cc\
=12	=12	=12	=12
4F\	4F\	4a/	8dd\L
.	.	.	(16ee\L
.	.	.	16dd\J)
8E\	8E\	8g/	8cc\J
4D\	4D\	4f/	4b-\
8C/	8C/	8e/	8a/
=13	=13	=13	=13
8.AA/L	8.AA/L	4cc\	8ee\L
.	.	.	(16gg\L
16BB/kk	16BB/kk	.	16ff\J)
8C/J	8C/J	8e/	8ee\J
4D\	4D\	8.f#/L	8dd\L
.	.	.	(16ee\L
.	.	16g#/kk	16dd\J)
8AA/	8AA/	8a/J	8cc\J
=14	=14	=14	=14
4E\	4E\	4a/	4b\
8EE/	8EE/	8g#/	8b\
4A\	4A\	4.a/	4a/
8G\	8G\	.	8e/
=15	=15	=15	=15
4.F\	4.F\	2.r	8a\L
.	.	.	(16cc\L
.	.	.	16b\J)
.	.	.	8a\J
4.E\	4.E\	.	8ee\L
.	.	.	(16ff\L
.	.	.	16ee\J)
.	.	.	8dd\J
=16	=16	=16	=16
4.A\	4.A\	4ee\	4cc\
.	.	8cc\	8a/
4.r	4.r	4.r	8ff\L
.	.	.	(16gg\L
.	.	.	16ff\J)
.	.	.	8ee\J
=17	=17	=17	=17
4.B\	4.B\	4ff\	4dd\
.	.	8dd\	8b\
4.r	4.r	4.r	8gg\L
.	.	.	(16aa\L
.	.	.	16gg\J)
.	.	.	8ff\J
=18	=18	=18	=18
4.c\	4.c\	4gg\	4ee\
.	.	8ee\	8cc\
4C/	4C/	8ee\L	8gg\L
.	.	(16ff\L	(16aa\L
.	.	16ee\J)	16gg\J)
8D\	8D\	8dd\J	8ff\J
=19	=19	=19	=19
4E\	4E\	8cc\L	8ee\L
.	.	(16ee\L	(16gg\L
.	.	16dd\J)	16ff\J)
8F\	8F\	8cc\J	8ee\J
4G\	4G\	4cc\	4dd\
8GG/	8GG/	8b\	8dd\
=20	=20	=20	=20
4C/	4C/	4cc\	4.ee\
8BB/	8BB/	8g/	.
4AA/	4AA/	8cc\L	4.r
.	.	(16ee\L	.
.	.	16dd\J)	.
8A\	8A\	8cc\J	.
=21	=21	=21	=21
4G\	4G\	8gg\L	2.r
.	.	(16aa\L	.
.	.	16gg\J)	.
8GG/	8GG/	8ff\J	.
8c\L	8c\L	4ee\	.
8B\	8B\	.	.
8A\J	8A\J	8cc\	.
=22	=22	=22	=22
4G\	4G\	4gg\	4bb\
8D\	8D\	8ff#\	8aa\
4G\	8G\L	4gg\	8bb\L
.	(16B\L	.	(16ddd\L
.	16A\J)	.	16ccc\J)
8GG/	8G\J	8gg\	8bb\J
=23	=23	=23	=23
4D\	8d\L	4gg\	4aa\
.	(16e\L	.	.
.	16d\J)	.	.
8D\	8c\J	8ff#\	8aa\
4.GG/	4.B\	8gg\L	8bb\L
.	.	(16aa\L	(16ccc\L
.	.	16gg\J)	16bb\J)
.	.	8ffn\J	8aa\J
=24	=24	=24	=24
4c\	8c\L	4.ee\	4.gg\
.	(16d\L	.	.
.	16c\J)	.	.
8B\	8B\J	.	.
4.A\	4.A\	8ff\L	8aa\L
.	.	(16gg\L	(16bb-\L
.	.	16ff\J)	16aa\J)
.	.	8ee\J	8gg\J
=25	=25	=25	=25
4B-\	8B-\L	4.dd\	4.ff\
.	(16c\L	.	.
.	16B-\J)	.	.
8A\	8A\J	.	.
4.G\	4.G\	8ee\L	8gg\L
.	.	(16ff\L	(16aa\L
.	.	16ee\J)	16gg\J)
.	.	8dd\J	8ff\J
=26	=26	=26	=26
4A\	8A\L	4.cc\	4.ee\
.	(16B-\L	.	.
.	16A\J)	.	.
8G\	8G\J	.	.
4.F\	4.F\	8dd\L	8ff\L
.	.	(16ee\L	(16gg\L
.	.	16dd\J)	16ff\J)
.	.	8cc\J	8ee\J
=27	=27	=27	=27
4G\	8G\L	4.b\	4.dd\
.	(16A\L	.	.
.	16G\J)	.	.
8F\	8F\J	.	.
4E\	8E\L	4.cc\	4.ee\
.	(16G\L	.	.
.	16F\J)	.	.
8E\	8E\J	.	.
=28	=28	=28	=28
4D\	8D\L	4.dd\	4.ff\
.	(16F\L	.	.
.	16E\J)	.	.
8D\	8D\J	.	.
4C/	8C/L	4.ee\	4.gg\
.	(16D/L	.	.
.	16C/J)	.	.
8BB-/	8BB-/J	.	.
=29	=29	=29	=29
4AA/	8AA/L	4.ff\	4.aa\
.	(16C/L	.	.
.	16BB-/J)	.	.
8AA/	8AA/J	.	.
4BB-/	8BB-/L	4.ff\	4.gg\
.	(16D/L	.	.
.	16C/J)	.	.
8BB-/	8BB-/J	.	.
=30	=30	=30	=30
4C/	4C/	4ff\	4.gg\
8C/	8C/	8ee\	.
4F\	4F\	4.ff\	4ff\
8E\	8E\	.	8cc\
=31	=31	=31	=31
4.D\	4.D\	2.r	8ff\L
.	.	.	(16aa\L
.	.	.	16gg\J)
.	.	.	8ff\J
4.C/	4.C/	.	8ccc\L
.	.	.	(16ddd\L
.	.	.	16ccc\J)
.	.	.	8bb-\J
=32	=32	=32	=32
8F\L	8F\L	4.r	4aa\
8E\	8E\	.	.
8D\J	8D\J	.	8ff\
8C\L	8C\L	4cc\	4ee\
8c\	8c\	.	.
8B\J	8B\J	8g/	8dd\
=33	=33	=33	=33
8A\L	8A\L	8cc\L	8ee\L
8G\	8G\	(16ee\L	(16gg\L
.	.	16dd\J)	16ff\J)
8A\J	8A\J	8cc\J	8ee\J
8B\L	8B\L	8gg\L	4dd\
8A\	8A\	(16aa\L	.
.	.	16gg\J)	.
8B\J	8B\J	8ff\J	8dd\
=34	=34	=34	=34
8c\L	8c\L	4ee\	4.cc\
8B\	8B\	.	.
8A\J	8A\J	8cc\	.
4.G\	4.G\	8gg\L	4.b\
.	.	(16bb\L	.
.	.	16aa\J)	.
.	.	8gg\J	.
=35	=35	=35	=35
4.A\	4.A\	(4gg\	4.cc\
.	.	8ff\)	.
4.B\	4.B\	8ff\L	4.dd\
.	.	(16aa\L	.
.	.	16gg\J)	.
.	.	8ff\J	.
=36	=36	=36	=36
4.c\	4.c\	(4ff\	4g/
.	.	8ee\)	8r
4.E\	4.E\	4.g#/	8ee\L
.	.	.	(16gg#\L
.	.	.	16ff#\J)
.	.	.	8ee\J
=37	=37	=37	=37
4.F#\	4.F#\	4.a/	(4ee\
.	.	.	8dd\)
4.G#\	4.G#\	4.b\	8dd\L
.	.	.	(16ff\L
.	.	.	16ee\J)
.	.	.	8dd\J
=38	=38	=38	=38
4.A\	4.A\	4.e/	(4dd\
.	.	.	8cc\)
4.C/	4.C/	8cc\L	8ee\L
.	.	(16ee\L	(16gg\L
.	.	16dd\J)	16ff\J)
.	.	8cc\J	8ee\J
=39	=39	=39	=39
4.D\	4.D\	8b\L	8dd\L
.	.	(16cc\L	(16ee\L
.	.	16b\J)	16dd\J)
.	.	8a\J	8cc\J
4.E\	4.E\	4a/	4b\
.	.	8g#/	8b\
=40	=40	=40	=40
4.AA/	4.AA/	4.a/	4.a/
4A\	4A\	4cc\	8ff\L
.	.	.	(16gg\L
.	.	.	16ff\J)
8G\	8G\	8b\	8ee\J
=41	=41	=41	=41
4F\	4F\	4a/	(4dd\
8E\	8E\	8g/	8cc\)
4A\	4A\	4cc\	8ff\L
.	.	.	(16gg\L
.	.	.	16ff\J)
8G\	8G\	8b\	8ee\J
=42	=42	=42	=42
4F\	4F\	4a/	(4dd\
8E\	8E\	8g/	8cc\)
4C/	4C/	8ee\L	8gg\L
.	.	(16ff\L	(16aa\L
.	.	16ee\J)	16gg\J)
8D\	8D\	8dd\J	8ff\J
=43	=43	=43	=43
4E\	4E\	8cc\L	8ee\L
.	.	(16ee\L	(16gg\L
.	.	16dd\J)	16ff\J)
8F\	8F\	8cc\J	8ee\J
4G\	4G\	4cc\	4dd\
8GG/	8GG/	8b\	8dd\
=44	=44	=44	=44
4C/	4C/	4.cc\	4cc\
8BB/	8BB/	.	8g/
4.AA/	4.AA/	4.r	8cc\L
.	.	.	(16ee\L
.	.	.	16dd\J)
.	.	.	8cc\J
=45	=45	=45	=45
4.GG/	4.GG/	2.r	8gg\L
.	.	.	(16aa\L
.	.	.	16gg\J)
.	.	.	8ff\J
8c\L	8c\L	.	4ee\
8B\	8B\	.	.
8A\J	8A\J	.	8cc\
=46	=46	=46	=46
4G\	4G\	4g/	4gg\
8F#\	8F#\	8d/	8aa\
4.E\	4.E\	8g/L	8bb\L
.	.	(16b/L	8g\
.	.	16a/J)	.
.	.	8g/J	8gg\J
=47	=47	=47	=47
4.D\	4.D\	8dd\L	4gg\
.	.	(16ee\L	.
.	.	16dd\J)	.
.	.	8cc\J	8ff#\
4.G\	4.G\	4b\	4gg\
.	.	8g/	8b\
=48	=48	=48	=48
4C/	4C/	8ee\L	8gg\L
.	.	(16ff\L	(16aa\L
.	.	16ee\J)	16gg\J)
8D\	8D\	8dd\J	8ff\J
4E\	4E\	8cc\L	8ee\L
.	.	(16ee\L	(16gg\L
.	.	16dd\J)	16ff\J)
8F\	8F\	8cc\J	8ee\J
=49	=49	=49	=49
4G\	4G\	4cc\	4dd\
8GG/	8GG/	8b\	8dd\
4.C/	4.C/	4.cc\	4.cc\
=50	=50	=50	=50
4C/	4C/	8ee\L	8gg\L
.	.	(16ff\L	(16aa\L
.	.	16ee\J)	16gg\J)
8D\	8D\	8dd\J	8ff\J
4E\	4E\	8cc\L	8ee\L
.	.	(16ee\L	(16gg\L
.	.	16dd\J)	16ff\J)
8F\	8F\	8cc\J	8ee\J
=51	=51	=51	=51
4G\	4G\	4cc\	4dd\
8GG/	8GG/	8b\	8dd\
4.C/	4.C/	4.cc\	4.cc\
==	==	==	==
*-	*-	*-	*-
!!!CDT: 1653/2/17/-1713/1/8
!!!OCY: Italia
!!!ODE: Queen Christina Alexandra of Sweden
!!!ODT: 1681//
!!!OPC: Roma; Rome
!!!AGN: trio sonata
!!!AST: baroque, chamber
!!!AMT: compound duple
!!!YOR1: J. Joachim & F. Chrysander (eds.) Les Oeuvre de Arcangelo Corelli
!!!YOR2: London: Augener & Co. 1871
!!!YOY: 1871
!!!AIN: archl cello organ violn
!!!EEV: 1.1
!!!RDT: 1993 August 31
!!!YER: 1994 December 14
!!!EMD: 1996 July 9
!!!YEN: United States of America
!!!EFL: 3/3
!!!ENC: Frances Bennion & Steven Rasmussen
!!!EED: W.B. Hewlett
!!!VTS: 4151711181
